src/assets/svg/muziek-aan.svg

<?xml version="1.0" encoding="UTF-8" standalone="no"?>
<svg width="90px" height="90px" viewBox="0 0 90 90" version="1.1" xmlns="http://www.w3.org/2000/svg" xmlns:xlink="http://www.w3.org/1999/xlink">
    <!-- Generator: Sketch 3.6.1 (26313) - http://www.bohemiancoding.com/sketch -->
    <title>muziek-aan</title>
    <desc>Created with Sketch.</desc>
    <defs></defs>
    <g id="Page-1" stroke="none" stroke-width="1" fill="none" fill-rule="evenodd">
        <g id="muziek-aan">
            <path d="M28.3936,28.5557122 L28.3936,12.3557122" id="Stroke-3" stroke="#232E38" stroke-width="2" stroke-linecap="round" stroke-linejoin="round"></path>
            <path d="M69.7936,33.9557122 L69.7936,59.1557122 C69.7936,62.1377122 67.3756,64.5557122 64.3936,64.5557122 L24.7936,64.5557122 C21.8116,64.5557122 19.3936,62.1377122 19.3936,59.1557122 L19.3936,33.9557122 C19.3936,30.9737122 21.8116,28.5557122 24.7936,28.5557122 L64.3936,28.5557122 C67.3756,28.5557122 69.7936,30.9737122 69.7936,33.9557122" id="Fill-5" fill="#E45544"></path>
            <path d="M69.7936,33.9557122 L69.7936,59.1557122 C69.7936,62.1377122 67.3756,64.5557122 64.3936,64.5557122 L24.7936,64.5557122 C21.8116,64.5557122 19.3936,62.1377122 19.3936,59.1557122 L19.3936,33.9557122 C19.3936,30.9737122 21.8116,28.5557122 24.7936,28.5557122 L64.3936,28.5557122 C67.3756,28.5557122 69.7936,30.9737122 69.7936,33.9557122 L69.7936,33.9557122 Z" id="Stroke-7" stroke="#3F291E" stroke-width="2" stroke-linecap="round" stroke-linejoin="round"></path>
            <path d="M64.3936,36.6557122 L64.3936,36.6557122 C64.3936,38.1467122 63.1846,39.3557122 61.6936,39.3557122 L27.4936,39.3557122 C26.0026,39.3557122 24.7936,38.1467122 24.7936,36.6557122 C24.7936,35.1647122 26.0026,33.9557122 27.4936,33.9557122 L61.6936,33.9557122 C63.1846,33.9557122 64.3936,35.1647122 64.3936,36.6557122" id="Fill-9" fill="#FFFFFF"></path>
            <path d="M64.3936,36.6557122 L64.3936,36.6557122 C64.3936,38.1467122 63.1846,39.3557122 61.6936,39.3557122 L27.4936,39.3557122 C26.0026,39.3557122 24.7936,38.1467122 24.7936,36.6557122 C24.7936,35.1647122 26.0026,33.9557122 27.4936,33.9557122 L61.6936,33.9557122 C63.1846,33.9557122 64.3936,35.1647122 64.3936,36.6557122 L64.3936,36.6557122 Z" id="Stroke-11" stroke="#3F291E" stroke-width="2" stroke-linecap="round" stroke-linejoin="round"></path>
            <path d="M53.5936,51.9557122 C53.5936,56.9267122 49.5646,60.9557122 44.5936,60.9557122 C39.6226,60.9557122 35.5936,56.9267122 35.5936,51.9557122 C35.5936,46.9847122 39.6226,42.9557122 44.5936,42.9557122 C49.5646,42.9557122 53.5936,46.9847122 53.5936,51.9557122" id="Fill-13" fill="#5B6875"></path>
            <path d="M53.5936,51.9557122 C53.5936,56.9267122 49.5646,60.9557122 44.5936,60.9557122 C39.6226,60.9557122 35.5936,56.9267122 35.5936,51.9557122 C35.5936,46.9847122 39.6226,42.9557122 44.5936,42.9557122 C49.5646,42.9557122 53.5936,46.9847122 53.5936,51.9557122 L53.5936,51.9557122 Z" id="Stroke-15" stroke="#0E1011" stroke-width="2" stroke-linecap="round" stroke-linejoin="round"></path>
            <path d="M35.7739,50.1557122 L53.4129,50.1557122" id="Stroke-17" stroke="#0E1011" stroke-width="2" stroke-linecap="round" stroke-linejoin="round"></path>
            <path d="M37.3935,46.5557122 L51.7935,46.5557122" id="Stroke-19" stroke="#0E1011" stroke-width="2" stroke-linecap="round" stroke-linejoin="round"></path>
            <path d="M35.7738,53.7557122 L53.4128,53.7557122" id="Stroke-21" stroke="#0E1011" stroke-width="2" stroke-linecap="round" stroke-linejoin="round"></path>
            <path d="M37.3935,57.3557122 L51.7935,57.3557122" id="Stroke-23" stroke="#0E1011" stroke-width="2" stroke-linecap="round" stroke-linejoin="round"></path>
            <path d="M55.3936,38.4557122 L55.3936,36.6557122" id="Stroke-25" stroke="#3F291E" stroke-width="2" stroke-linecap="round" stroke-linejoin="round"></path>
            <path d="M64.3936,56.4557122 C64.3936,57.9467122 63.1846,59.1557122 61.6936,59.1557122 C60.2026,59.1557122 58.9936,57.9467122 58.9936,56.4557122 C58.9936,54.9647122 60.2026,53.7557122 61.6936,53.7557122 C63.1846,53.7557122 64.3936,54.9647122 64.3936,56.4557122" id="Fill-27" fill="#5B6875"></path>
            <path d="M64.3936,56.4557122 C64.3936,57.9467122 63.1846,59.1557122 61.6936,59.1557122 C60.2026,59.1557122 58.9936,57.9467122 58.9936,56.4557122 C58.9936,54.9647122 60.2026,53.7557122 61.6936,53.7557122 C63.1846,53.7557122 64.3936,54.9647122 64.3936,56.4557122 L64.3936,56.4557122 Z" id="Stroke-29" stroke="#0E1011" stroke-width="2" stroke-linecap="round" stroke-linejoin="round"></path>
            <path d="M30.1936,56.4557122 C30.1936,57.9467122 28.9846,59.1557122 27.4936,59.1557122 C26.0026,59.1557122 24.7936,57.9467122 24.7936,56.4557122 C24.7936,54.9647122 26.0026,53.7557122 27.4936,53.7557122 C28.9846,53.7557122 30.1936,54.9647122 30.1936,56.4557122" id="Fill-31" fill="#5B6875"></path>
            <path d="M30.1936,56.4557122 C30.1936,57.9467122 28.9846,59.1557122 27.4936,59.1557122 C26.0026,59.1557122 24.7936,57.9467122 24.7936,56.4557122 C24.7936,54.9647122 26.0026,53.7557122 27.4936,53.7557122 C28.9846,53.7557122 30.1936,54.9647122 30.1936,56.4557122 L30.1936,56.4557122 Z" id="Stroke-33" stroke="#0E1011" stroke-width="2" stroke-linecap="round" stroke-linejoin="round"></path>
            <path d="M58.8994,68.4949122 L54.4874,69.8439122 C53.9524,69.9979122 53.5194,70.5539122 53.5194,71.0899122 L53.5194,75.7439122 C53.5194,75.7439122 53.2004,75.5289122 52.4884,75.6299122 C51.4414,75.7769122 50.5934,76.5799122 50.5934,77.4209122 C50.5934,78.2629122 51.4414,78.7809122 52.4884,78.6319122 C53.5334,78.4839122 54.3014,77.7059122 54.3014,76.8629122 L54.3014,72.8889122 C54.3014,72.5149122 54.7494,72.3559122 54.7494,72.3559122 L58.6514,71.1319122 C58.6514,71.1319122 59.0834,70.9889122 59.0834,71.3879122 L59.0834,74.5809122 C59.0834,74.5809122 58.6864,74.3519122 57.9724,74.4369122 C56.9274,74.5649122 56.0794,75.3499122 56.0794,76.1919122 C56.0794,77.0339122 56.9274,77.5669122 57.9724,77.4409122 C59.0194,77.3129122 59.8674,76.5269122 59.8674,75.6859122 L59.8674,69.1869122 C59.8674,68.6519122 59.4344,68.3419122 58.8994,68.4949122" id="Fill-35" fill="#000000"></path>
            <path d="M66.781,12.8522122 L61.167,12.0192122 C60.492,11.9072122 59.717,12.2962122 59.434,12.8912122 L56.975,18.0612122 C56.975,18.0612122 56.733,17.6532122 55.889,17.3892122 C54.648,16.9992122 53.283,17.4432122 52.838,18.3782122 C52.393,19.3132122 53.061,20.3352122 54.303,20.7232122 C55.541,21.1122122 56.806,20.6542122 57.251,19.7172122 L59.351,15.3032122 C59.549,14.8872122 60.131,14.9482122 60.131,14.9482122 L65.112,15.6502122 C65.112,15.6502122 65.668,15.7192122 65.457,16.1632122 L63.77,19.7092122 C63.77,19.7092122 63.449,19.2452122 62.612,18.9622122 C61.383,18.5522122 60.026,18.9762122 59.581,19.9112122 C59.136,20.8462122 59.796,21.8862122 61.024,22.2992122 C62.255,22.7102122 63.611,22.2852122 64.056,21.3502122 L67.49,14.1322122 C67.773,13.5382122 67.457,12.9642122 66.781,12.8522122" id="Fill-37" fill="#000000"></path>
            <path d="M21.53,17.6580122 L17.53,18.8810122 C17.045,19.0200122 16.653,19.5250122 16.653,20.0100122 L16.653,24.2290122 C16.653,24.2290122 16.363,24.0350122 15.718,24.1260122 C14.769,24.2600122 14,24.9870122 14,25.7500122 C14,26.5130122 14.769,26.9820122 15.718,26.8470122 C16.665,26.7140122 17.361,26.0090122 17.361,25.2440122 L17.361,21.6420122 C17.361,21.3020122 17.768,21.1580122 17.768,21.1580122 L21.305,20.0490122 C21.305,20.0490122 21.697,19.9190122 21.697,20.2810122 L21.697,23.1750122 C21.697,23.1750122 21.336,22.9670122 20.69,23.0440122 C19.742,23.1610122 18.974,23.8730122 18.974,24.6360122 C18.974,25.3990122 19.742,25.8820122 20.69,25.7680122 C21.639,25.6520122 22.407,24.9400122 22.407,24.1770122 L22.407,18.2850122 C22.407,17.8000122 22.015,17.5190122 21.53,17.6580122" id="Fill-39" fill="#000000"></path>
        </g>
    </g>
</svg>

<svg height="90" viewBox="0 0 90 90" width="90" xmlns="http://www.w3.org/2000/svg"><g fill="none" fill-rule="evenodd"><path d="m28.3936 28.5557122v-16.2" stroke="#232e38" stroke-linecap="round" stroke-linejoin="round" stroke-width="2"/><path d="m69.7936 33.9557122v25.2c0 2.982-2.418 5.4-5.4 5.4h-39.6c-2.982 0-5.4-2.418-5.4-5.4v-25.2c0-2.982 2.418-5.4 5.4-5.4h39.6c2.982 0 5.4 2.418 5.4 5.4" fill="#e45544"/><path d="m69.7936 33.9557122v25.2c0 2.982-2.418 5.4-5.4 5.4h-39.6c-2.982 0-5.4-2.418-5.4-5.4v-25.2c0-2.982 2.418-5.4 5.4-5.4h39.6c2.982 0 5.4 2.418 5.4 5.4z" stroke="#3f291e" stroke-linecap="round" stroke-linejoin="round" stroke-width="2"/><path d="m64.3936 36.6557122c0 1.491-1.209 2.7-2.7 2.7h-34.2c-1.491 0-2.7-1.209-2.7-2.7s1.209-2.7 2.7-2.7h34.2c1.491 0 2.7 1.209 2.7 2.7" fill="#fff"/><path d="m64.3936 36.6557122c0 1.491-1.209 2.7-2.7 2.7h-34.2c-1.491 0-2.7-1.209-2.7-2.7s1.209-2.7 2.7-2.7h34.2c1.491 0 2.7 1.209 2.7 2.7z" stroke="#3f291e" stroke-linecap="round" stroke-linejoin="round" stroke-width="2"/><path d="m53.5936 51.9557122c0 4.971-4.029 9-9 9s-9-4.029-9-9 4.029-9 9-9 9 4.029 9 9" fill="#5b6875"/><g stroke-linecap="round" stroke-linejoin="round" stroke-width="2"><path d="m53.5936 51.9557122c0 4.971-4.029 9-9 9s-9-4.029-9-9 4.029-9 9-9 9 4.029 9 9z" stroke="#0e1011"/><path d="m35.7739 50.1557122h17.639" stroke="#0e1011"/><path d="m37.3935 46.5557122h14.4" stroke="#0e1011"/><path d="m35.7738 53.7557122h17.639" stroke="#0e1011"/><path d="m37.3935 57.3557122h14.4" stroke="#0e1011"/><path d="m55.3936 38.4557122v-1.8" stroke="#3f291e"/></g><path d="m64.3936 56.4557122c0 1.491-1.209 2.7-2.7 2.7s-2.7-1.209-2.7-2.7 1.209-2.7 2.7-2.7 2.7 1.209 2.7 2.7" fill="#5b6875"/><path d="m64.3936 56.4557122c0 1.491-1.209 2.7-2.7 2.7s-2.7-1.209-2.7-2.7 1.209-2.7 2.7-2.7 2.7 1.209 2.7 2.7z" stroke="#0e1011" stroke-linecap="round" stroke-linejoin="round" stroke-width="2"/><path d="m30.1936 56.4557122c0 1.491-1.209 2.7-2.7 2.7s-2.7-1.209-2.7-2.7 1.209-2.7 2.7-2.7 2.7 1.209 2.7 2.7" fill="#5b6875"/><path d="m30.1936 56.4557122c0 1.491-1.209 2.7-2.7 2.7s-2.7-1.209-2.7-2.7 1.209-2.7 2.7-2.7 2.7 1.209 2.7 2.7z" stroke="#0e1011" stroke-linecap="round" stroke-linejoin="round" stroke-width="2"/><path d="m58.8994 68.4949122-4.412 1.349c-.535.154-.968.71-.968 1.246v4.654s-.319-.215-1.031-.114c-1.047.147-1.895.95-1.895 1.791 0 .842.848 1.36 1.895 1.211 1.045-.148 1.813-.926 1.813-1.769v-3.974c0-.374.448-.533.448-.533l3.902-1.224s.432-.143.432.256v3.193s-.397-.229-1.111-.144c-1.045.128-1.893.913-1.893 1.755s.848 1.375 1.893 1.249c1.047-.128 1.895-.914 1.895-1.755v-6.499c0-.535-.433-.845-.968-.692" fill="#000"/><path d="m66.781 12.8522122-5.614-.833c-.675-.112-1.45.277-1.733.872l-2.459 5.17s-.242-.408-1.086-.672c-1.241-.39-2.606.054-3.051.989s.223 1.957 1.465 2.345c1.238.389 2.503-.069 2.948-1.006l2.1-4.414c.198-.416.78-.355.78-.355l4.981.702s.556.069.345.513l-1.687 3.546s-.321-.464-1.158-.747c-1.229-.41-2.586.014-3.031.949s.215 1.975 1.443 2.388c1.231.411 2.587-.014 3.032-.949l3.434-7.218c.283-.594-.033-1.168-.709-1.28" fill="#000"/><path d="m21.53 17.6580122-4 1.223c-.485.139-.877.644-.877 1.129v4.219s-.29-.194-.935-.103c-.949.134-1.718.861-1.718 1.624s.769 1.232 1.718 1.097c.947-.133 1.643-.838 1.643-1.603v-3.602c0-.34.407-.484.407-.484l3.537-1.109s.392-.13.392.232v2.894s-.361-.208-1.007-.131c-.948.117-1.716.829-1.716 1.592s.768 1.246 1.716 1.132c.949-.116 1.717-.828 1.717-1.591v-5.892c0-.485-.392-.766-.877-.627" fill="#000"/></g></svg>
